X:183
T:Springtime Schottische
R:schottis
C:Bruce Osborne - Mar. 2002
Z:abc by bosborne@kos.net
M:2/4
L:1/8
K:Fmaj
A/G/|F/C/A,/C/ F/C/A,/C/|A/d/c/A/ d/c/A/F/|G/F/G/A/ B/G/E/G/|e/d/c/B/ A/G/F/E/|\
F/C/A,/C/ F/C/A,/C/|A/d/c/A/ d/c/A/F/|G/F/G/A/ B/G/E/G/|F (3G/F/E/ F:|
|:A/B/|c/f/c/A/ d/B/G/E/|F/E/F/G/ AA/c/|f/a/g/f/ e/c/G/E/|F/A/c/A/ fA/B/|\
c/f/c/A/ d/B/G/E/|F/E/F/G/ AA/c/|f/a/g/f/ e/c/G/E/|F/E/A/G/ F:|
